X: 4162
T: The LITTLE BAG OF POTATOES
%R: reel
B: James Kerr "Merry Melodies" v.4 p.19 #162
Z: 2016 John Chambers <jc:trillian.mit.edu>
M: C|
L: 1/8
K: D
|:\
d2(df) edBA | Bdef e2(de) |\
faaf g2(fe) | fedB A2AB ::\
fdad fddd | faaf g2(fe) |\
[1 faae fddd | fedB A2(AB) :|\
[2 faaa b2(ba) | g2fe g2fe |]

%%sep 1 1 500
%%sep 1 1 500

